report_00007_2020-12-11T15:55:29.892Z/server-response-time/comparison/sorted/12_vs_13.svg

<svg width="640" height="500" xmlns="http://www.w3.org/2000/svg" xmlns:xlink="http://www.w3.org/1999/xlink"><path fill="#fff" d="M0 0h640v500H0z"/><defs><path id="d" stroke-width=".222" stroke="currentColor" d="M-1-1h2v2h-2z"/><path id="b" stroke-width=".222" stroke="currentColor" d="M0-1.33l-1.33 2h2.66z"/><path id="f" stroke-width=".222" stroke="currentColor" d="M0 1.33L1.265.411.782-1.067l-1.564-.009-.483 1.487z"/><use xlink:href="#b" id="c" stroke="currentColor" transform="rotate(180)"/><use xlink:href="#d" id="e" stroke="currentColor" transform="rotate(45)"/><circle id="a" stroke-width=".222" stroke="currentColor" cx="0" cy="0" r="1"/></defs><g fill="none" color="#000" stroke="currentColor"><path stroke="#000" d="M53.9 390.3h9m552.1 0h-9"/><text transform="translate(45.6 394.2)" stroke="none" fill="#000" font-family="Arial" font-size="12" text-anchor="end"><tspan>1.4</tspan></text></g><g fill="none" color="#000" stroke="currentColor"><path stroke="#000" d="M53.9 347.2h9m552.1 0h-9"/><text transform="translate(45.6 351.1)" stroke="none" fill="#000" font-family="Arial" font-size="12" text-anchor="end"><tspan>1.6</tspan></text></g><g fill="none" color="#000" stroke="currentColor"><path stroke="#000" d="M53.9 304h9m552.1 0h-9"/><text transform="translate(45.6 307.9)" stroke="none" fill="#000" font-family="Arial" font-size="12" text-anchor="end"><tspan>1.8</tspan></text></g><g fill="none" color="#000" stroke="currentColor"><path stroke="#000" d="M53.9 260.8h9m552.1 0h-9"/><text transform="translate(45.6 264.7)" stroke="none" fill="#000" font-family="Arial" font-size="12" text-anchor="end"><tspan>2</tspan></text></g><g fill="none" color="#000" stroke="currentColor"><path stroke="#000" d="M53.9 217.7h9m552.1 0h-9"/><text transform="translate(45.6 221.6)" stroke="none" fill="#000" font-family="Arial" font-size="12" text-anchor="end"><tspan>2.2</tspan></text></g><g fill="none" color="#000" stroke="currentColor"><path stroke="#000" d="M53.9 174.5h9m552.1 0h-9"/><text transform="translate(45.6 178.4)" stroke="none" fill="#000" font-family="Arial" font-size="12" text-anchor="end"><tspan>2.4</tspan></text></g><g fill="none" color="#000" stroke="currentColor"><path stroke="#000" d="M53.9 131.3h9m552.1 0h-9"/><text transform="translate(45.6 135.2)" stroke="none" fill="#000" font-family="Arial" font-size="12" text-anchor="end"><tspan>2.6</tspan></text></g><g fill="none" color="#000" stroke="currentColor"><path stroke="#000" d="M53.9 88.1h9m552.1 0h-9"/><text transform="translate(45.6 92)" stroke="none" fill="#000" font-family="Arial" font-size="12" text-anchor="end"><tspan>2.8</tspan></text></g><g fill="none" color="#000" stroke="currentColor"><path stroke="#000" d="M53.9 45h9M615 45h-9"/><text transform="translate(45.6 48.9)" stroke="none" fill="#000" font-family="Arial" font-size="12" text-anchor="end"><tspan>3</tspan></text></g><g fill="none" color="#000" stroke="currentColor"><path stroke="#000" d="M53.9 428v-9m0-400.9v9"/><text transform="translate(53.9 449.9)" stroke="none" fill="#000" font-family="Arial" font-size="12" text-anchor="middle"><tspan>0</tspan></text></g><g fill="none" color="#000" stroke="currentColor"><path stroke="#000" d="M110.6 428v-9m0-400.9v9"/><text transform="translate(110.6 449.9)" stroke="none" fill="#000" font-family="Arial" font-size="12" text-anchor="middle"><tspan>10</tspan></text></g><g fill="none" color="#000" stroke="currentColor"><path stroke="#000" d="M167.3 428v-9m0-400.9v9"/><text transform="translate(167.3 449.9)" stroke="none" fill="#000" font-family="Arial" font-size="12" text-anchor="middle"><tspan>20</tspan></text></g><g fill="none" color="#000" stroke="currentColor"><path stroke="#000" d="M223.9 428v-9m0-400.9v9"/><text transform="translate(223.9 449.9)" stroke="none" fill="#000" font-family="Arial" font-size="12" text-anchor="middle"><tspan>30</tspan></text></g><g fill="none" color="#000" stroke="currentColor"><path stroke="#000" d="M280.6 428v-9m0-400.9v9"/><text transform="translate(280.6 449.9)" stroke="none" fill="#000" font-family="Arial" font-size="12" text-anchor="middle"><tspan>40</tspan></text></g><g fill="none" color="#000" stroke="currentColor"><path stroke="#000" d="M337.3 428v-9m0-400.9v9"/><text transform="translate(337.3 449.9)" stroke="none" fill="#000" font-family="Arial" font-size="12" text-anchor="middle"><tspan>50</tspan></text></g><g fill="none" color="#000" stroke="currentColor"><path stroke="#000" d="M394 428v-9m0-400.9v9"/><text transform="translate(394 449.9)" stroke="none" fill="#000" font-family="Arial" font-size="12" text-anchor="middle"><tspan>60</tspan></text></g><g fill="none" color="#000" stroke="currentColor"><path stroke="#000" d="M450.6 428v-9m0-400.9v9"/><text transform="translate(450.6 449.9)" stroke="none" fill="#000" font-family="Arial" font-size="12" text-anchor="middle"><tspan>70</tspan></text></g><g fill="none" color="#000" stroke="currentColor"><path stroke="#000" d="M507.3 428v-9m0-400.9v9"/><text transform="translate(507.3 449.9)" stroke="none" fill="#000" font-family="Arial" font-size="12" text-anchor="middle"><tspan>80</tspan></text></g><g fill="none" color="#000" stroke="currentColor"><path stroke="#000" d="M564 428v-9m0-400.9v9"/><text transform="translate(564 449.9)" stroke="none" fill="#000" font-family="Arial" font-size="12" text-anchor="middle"><tspan>90</tspan></text></g><path stroke="#000" d="M53.9 18.1V428H615V18.1H53.9z" fill="none" color="#000"/><text transform="translate(529.1 467.9)" stroke="none" fill="#000" font-family="Arial" font-size="12" text-anchor="end" color="#000"><tspan>pages+cached+noexternal+nofonts+nosvg+noimg+nocss</tspan></text><path stroke="#9400D3" d="M537.4 464h42.2M53.9 420.1l5.7-1.7 5.6-1.5 5.7-.7 5.7-1.3 5.6-1.9 5.7-.2 5.7-6.3 5.6-3.9 5.7-.2 5.7-2.4 5.6-.6 5.7-.2 5.7-3.3 5.6-.2 5.7-.8 5.7-.9 5.7-.6 5.6-.5h5.7l5.7-2.4 5.6-1.7 5.7-.6 5.7-1.8 5.6-2.8 5.7-1 5.7-.5 5.6-4.1 5.7-1.3 5.7-.4 5.6-.2 5.7-.9 5.7-1.1 5.6-1.3 5.7-1.2 5.7-.9 5.6-11.2 5.7-1.5 5.7-.9 5.6-12.7 5.7-5.9h5.7l5.6-3.2 5.7-1.3h5.7l5.6-.7 5.7-3.4 5.7-1.3 5.6-1.5 5.7-.2 5.7-.9 5.7-1.5 5.6-1.1 5.7-.2 5.7-.6h5.6l5.7-1.1 5.7-4.1 5.6-.9 5.7-2.1 5.7-.7 5.6-3.2 5.7-.9 5.7-1.3 5.6-1.1h5.7l5.7-1.7 5.6-1.1 5.7-4.1 5.7-3 5.6-.2 5.7-2.2 5.7-6 5.6-.2 5.7-2.6 5.7-2.2 5.6-1.1 5.7-.2 5.7-5.6 5.6-1.3 5.7-.2 5.7-1.1 5.6-1.9 5.7-2.8 5.7-2.4 5.7-2.2 5.6-2.8 5.7-12.1 5.7-5.8 5.6-1.3 5.7-.8 5.7-1.8 5.6-6.4 5.7-15.4 5.7-.8 5.6-1.1 5.7-5.4 5.7-1.7 5.6-47.1 5.7-22.2" fill="none" color="#000"/><text transform="translate(529.1 485.9)" stroke="none" fill="#000" font-family="Arial" font-size="12" text-anchor="end" color="#000"><tspan>pages+cached+noexternal+nofonts+nosvg+noimg+nocss+nojs</tspan></text><path stroke="#009E73" d="M537.4 482h42.2M53.9 418.8l5.7-.6 5.6-1.5 5.7-6.7 5.7-.5 5.6-.2 5.7-.2h5.7l5.6-1.1 5.7-.6 5.7-1.1 5.6-2.6 5.7-.4 5.7-2h5.6l5.7-.4h5.7l5.7-.9 5.6-.8 5.7-.5 5.7-.4h5.6l5.7-.2 5.7-.4 5.6-.5 5.7-.6h5.7l5.6-.9 5.7-.8 5.7-.9 5.6-1.1 5.7-2.8 5.7-.2 5.6-.9 5.7-.4 5.7-1.7 5.6-3.5 5.7-1.1 5.7-.2 5.6-2.1 5.7-6.3 5.7-.6 5.6-1.1 5.7-.2 5.7-1.5 5.6-5.7 5.7-1 5.7-2 5.6-4.1 5.7-3 5.7-1.9 5.7-6.9 5.6-.9 5.7-.7 5.7-1 5.6-1.3 5.7-2.6 5.7-.5 5.6-4.9 5.7-1.1 5.7-3.2 5.6-1.1 5.7-1.5 5.7-.7 5.6-.8 5.7-1.3 5.7-7.6 5.6-.2 5.7-1.7 5.7-1.5 5.6-.5 5.7-1.7 5.7-.9 5.6-.4 5.7-1.1 5.7-2.6 5.6-2.8 5.7-.8 5.7-1.3 5.6-3.7 5.7-1.1h5.7l5.6-.6 5.7-1.1 5.7-1.1 5.7-4.1 5.6-17.9 5.7-2.4 5.7-7.7 5.6-11.5 5.7-.4 5.7-14 5.6-12.6 5.7-4.3 5.7-5.4 5.6-7.3 5.7-9.3 5.7-23.3 5.6-18.6L615 26" fill="none" color="#000"/><g fill="none" color="#000" stroke="currentColor"><path stroke="#000" d="M53.9 18.1V428H615V18.1H53.9z"/></g></svg>

<?xml version="1.0" encoding="utf-8"  standalone="no"?>
<svg 
 width="640" height="500"
 viewBox="0 0 640 500"
 xmlns="http://www.w3.org/2000/svg"
 xmlns:xlink="http://www.w3.org/1999/xlink"
>

<title>Gnuplot</title>
<desc>Produced by GNUPLOT 5.4 patchlevel 0 </desc>

<g id="gnuplot_canvas">

<rect x="0" y="0" width="640" height="500" fill="#ffffff"/>
<defs>

	<circle id='gpDot' r='0.5' stroke-width='0.5' stroke='currentColor'/>
	<path id='gpPt0' stroke-width='0.222' stroke='currentColor' d='M-1,0 h2 M0,-1 v2'/>
	<path id='gpPt1' stroke-width='0.222' stroke='currentColor' d='M-1,-1 L1,1 M1,-1 L-1,1'/>
	<path id='gpPt2' stroke-width='0.222' stroke='currentColor' d='M-1,0 L1,0 M0,-1 L0,1 M-1,-1 L1,1 M-1,1 L1,-1'/>
	<rect id='gpPt3' stroke-width='0.222' stroke='currentColor' x='-1' y='-1' width='2' height='2'/>
	<rect id='gpPt4' stroke-width='0.222' stroke='currentColor' fill='currentColor' x='-1' y='-1' width='2' height='2'/>
	<circle id='gpPt5' stroke-width='0.222' stroke='currentColor' cx='0' cy='0' r='1'/>
	<use xlink:href='#gpPt5' id='gpPt6' fill='currentColor' stroke='none'/>
	<path id='gpPt7' stroke-width='0.222' stroke='currentColor' d='M0,-1.33 L-1.33,0.67 L1.33,0.67 z'/>
	<use xlink:href='#gpPt7' id='gpPt8' fill='currentColor' stroke='none'/>
	<use xlink:href='#gpPt7' id='gpPt9' stroke='currentColor' transform='rotate(180)'/>
	<use xlink:href='#gpPt9' id='gpPt10' fill='currentColor' stroke='none'/>
	<use xlink:href='#gpPt3' id='gpPt11' stroke='currentColor' transform='rotate(45)'/>
	<use xlink:href='#gpPt11' id='gpPt12' fill='currentColor' stroke='none'/>
	<path id='gpPt13' stroke-width='0.222' stroke='currentColor' d='M0,1.330 L1.265,0.411 L0.782,-1.067 L-0.782,-1.076 L-1.265,0.411 z'/>
	<use xlink:href='#gpPt13' id='gpPt14' fill='currentColor' stroke='none'/>
	<filter id='textbox' filterUnits='objectBoundingBox' x='0' y='0' height='1' width='1'>
	  <feFlood flood-color='#FFFFFF' flood-opacity='1' result='bgnd'/>
	  <feComposite in='SourceGraphic' in2='bgnd' operator='atop'/>
	</filter>
	<filter id='greybox' filterUnits='objectBoundingBox' x='0' y='0' height='1' width='1'>
	  <feFlood flood-color='lightgrey' flood-opacity='1' result='grey'/>
	  <feComposite in='SourceGraphic' in2='grey' operator='atop'/>
	</filter>
</defs>
<g fill="none" color="#FFFFFF" stroke="black" stroke-width="1.00" stroke-linecap="butt" stroke-linejoin="miter">
</g>
<g fill="none" color="black" stroke="currentColor" stroke-width="1.00" stroke-linecap="butt" stroke-linejoin="miter">
	<path stroke='black'  d='M53.9,390.3 L62.9,390.3 M615.0,390.3 L606.0,390.3  '/>	<g transform="translate(45.6,394.2)" stroke="none" fill="black" font-family="Arial" font-size="12.00"  text-anchor="end">
		<text><tspan font-family="Arial" > 1.4</tspan></text>
	</g>
</g>
<g fill="none" color="black" stroke="currentColor" stroke-width="1.00" stroke-linecap="butt" stroke-linejoin="miter">
	<path stroke='black'  d='M53.9,347.2 L62.9,347.2 M615.0,347.2 L606.0,347.2  '/>	<g transform="translate(45.6,351.1)" stroke="none" fill="black" font-family="Arial" font-size="12.00"  text-anchor="end">
		<text><tspan font-family="Arial" > 1.6</tspan></text>
	</g>
</g>
<g fill="none" color="black" stroke="currentColor" stroke-width="1.00" stroke-linecap="butt" stroke-linejoin="miter">
	<path stroke='black'  d='M53.9,304.0 L62.9,304.0 M615.0,304.0 L606.0,304.0  '/>	<g transform="translate(45.6,307.9)" stroke="none" fill="black" font-family="Arial" font-size="12.00"  text-anchor="end">
		<text><tspan font-family="Arial" > 1.8</tspan></text>
	</g>
</g>
<g fill="none" color="black" stroke="currentColor" stroke-width="1.00" stroke-linecap="butt" stroke-linejoin="miter">
	<path stroke='black'  d='M53.9,260.8 L62.9,260.8 M615.0,260.8 L606.0,260.8  '/>	<g transform="translate(45.6,264.7)" stroke="none" fill="black" font-family="Arial" font-size="12.00"  text-anchor="end">
		<text><tspan font-family="Arial" > 2</tspan></text>
	</g>
</g>
<g fill="none" color="black" stroke="currentColor" stroke-width="1.00" stroke-linecap="butt" stroke-linejoin="miter">
	<path stroke='black'  d='M53.9,217.7 L62.9,217.7 M615.0,217.7 L606.0,217.7  '/>	<g transform="translate(45.6,221.6)" stroke="none" fill="black" font-family="Arial" font-size="12.00"  text-anchor="end">
		<text><tspan font-family="Arial" > 2.2</tspan></text>
	</g>
</g>
<g fill="none" color="black" stroke="currentColor" stroke-width="1.00" stroke-linecap="butt" stroke-linejoin="miter">
	<path stroke='black'  d='M53.9,174.5 L62.9,174.5 M615.0,174.5 L606.0,174.5  '/>	<g transform="translate(45.6,178.4)" stroke="none" fill="black" font-family="Arial" font-size="12.00"  text-anchor="end">
		<text><tspan font-family="Arial" > 2.4</tspan></text>
	</g>
</g>
<g fill="none" color="black" stroke="currentColor" stroke-width="1.00" stroke-linecap="butt" stroke-linejoin="miter">
	<path stroke='black'  d='M53.9,131.3 L62.9,131.3 M615.0,131.3 L606.0,131.3  '/>	<g transform="translate(45.6,135.2)" stroke="none" fill="black" font-family="Arial" font-size="12.00"  text-anchor="end">
		<text><tspan font-family="Arial" > 2.6</tspan></text>
	</g>
</g>
<g fill="none" color="black" stroke="currentColor" stroke-width="1.00" stroke-linecap="butt" stroke-linejoin="miter">
	<path stroke='black'  d='M53.9,88.1 L62.9,88.1 M615.0,88.1 L606.0,88.1  '/>	<g transform="translate(45.6,92.0)" stroke="none" fill="black" font-family="Arial" font-size="12.00"  text-anchor="end">
		<text><tspan font-family="Arial" > 2.8</tspan></text>
	</g>
</g>
<g fill="none" color="black" stroke="currentColor" stroke-width="1.00" stroke-linecap="butt" stroke-linejoin="miter">
	<path stroke='black'  d='M53.9,45.0 L62.9,45.0 M615.0,45.0 L606.0,45.0  '/>	<g transform="translate(45.6,48.9)" stroke="none" fill="black" font-family="Arial" font-size="12.00"  text-anchor="end">
		<text><tspan font-family="Arial" > 3</tspan></text>
	</g>
</g>
<g fill="none" color="black" stroke="currentColor" stroke-width="1.00" stroke-linecap="butt" stroke-linejoin="miter">
	<path stroke='black'  d='M53.9,428.0 L53.9,419.0 M53.9,18.1 L53.9,27.1  '/>	<g transform="translate(53.9,449.9)" stroke="none" fill="black" font-family="Arial" font-size="12.00"  text-anchor="middle">
		<text><tspan font-family="Arial" > 0</tspan></text>
	</g>
</g>
<g fill="none" color="black" stroke="currentColor" stroke-width="1.00" stroke-linecap="butt" stroke-linejoin="miter">
	<path stroke='black'  d='M110.6,428.0 L110.6,419.0 M110.6,18.1 L110.6,27.1  '/>	<g transform="translate(110.6,449.9)" stroke="none" fill="black" font-family="Arial" font-size="12.00"  text-anchor="middle">
		<text><tspan font-family="Arial" > 10</tspan></text>
	</g>
</g>
<g fill="none" color="black" stroke="currentColor" stroke-width="1.00" stroke-linecap="butt" stroke-linejoin="miter">
	<path stroke='black'  d='M167.3,428.0 L167.3,419.0 M167.3,18.1 L167.3,27.1  '/>	<g transform="translate(167.3,449.9)" stroke="none" fill="black" font-family="Arial" font-size="12.00"  text-anchor="middle">
		<text><tspan font-family="Arial" > 20</tspan></text>
	</g>
</g>
<g fill="none" color="black" stroke="currentColor" stroke-width="1.00" stroke-linecap="butt" stroke-linejoin="miter">
	<path stroke='black'  d='M223.9,428.0 L223.9,419.0 M223.9,18.1 L223.9,27.1  '/>	<g transform="translate(223.9,449.9)" stroke="none" fill="black" font-family="Arial" font-size="12.00"  text-anchor="middle">
		<text><tspan font-family="Arial" > 30</tspan></text>
	</g>
</g>
<g fill="none" color="black" stroke="currentColor" stroke-width="1.00" stroke-linecap="butt" stroke-linejoin="miter">
	<path stroke='black'  d='M280.6,428.0 L280.6,419.0 M280.6,18.1 L280.6,27.1  '/>	<g transform="translate(280.6,449.9)" stroke="none" fill="black" font-family="Arial" font-size="12.00"  text-anchor="middle">
		<text><tspan font-family="Arial" > 40</tspan></text>
	</g>
</g>
<g fill="none" color="black" stroke="currentColor" stroke-width="1.00" stroke-linecap="butt" stroke-linejoin="miter">
	<path stroke='black'  d='M337.3,428.0 L337.3,419.0 M337.3,18.1 L337.3,27.1  '/>	<g transform="translate(337.3,449.9)" stroke="none" fill="black" font-family="Arial" font-size="12.00"  text-anchor="middle">
		<text><tspan font-family="Arial" > 50</tspan></text>
	</g>
</g>
<g fill="none" color="black" stroke="currentColor" stroke-width="1.00" stroke-linecap="butt" stroke-linejoin="miter">
	<path stroke='black'  d='M394.0,428.0 L394.0,419.0 M394.0,18.1 L394.0,27.1  '/>	<g transform="translate(394.0,449.9)" stroke="none" fill="black" font-family="Arial" font-size="12.00"  text-anchor="middle">
		<text><tspan font-family="Arial" > 60</tspan></text>
	</g>
</g>
<g fill="none" color="black" stroke="currentColor" stroke-width="1.00" stroke-linecap="butt" stroke-linejoin="miter">
	<path stroke='black'  d='M450.6,428.0 L450.6,419.0 M450.6,18.1 L450.6,27.1  '/>	<g transform="translate(450.6,449.9)" stroke="none" fill="black" font-family="Arial" font-size="12.00"  text-anchor="middle">
		<text><tspan font-family="Arial" > 70</tspan></text>
	</g>
</g>
<g fill="none" color="black" stroke="currentColor" stroke-width="1.00" stroke-linecap="butt" stroke-linejoin="miter">
	<path stroke='black'  d='M507.3,428.0 L507.3,419.0 M507.3,18.1 L507.3,27.1  '/>	<g transform="translate(507.3,449.9)" stroke="none" fill="black" font-family="Arial" font-size="12.00"  text-anchor="middle">
		<text><tspan font-family="Arial" > 80</tspan></text>
	</g>
</g>
<g fill="none" color="black" stroke="currentColor" stroke-width="1.00" stroke-linecap="butt" stroke-linejoin="miter">
	<path stroke='black'  d='M564.0,428.0 L564.0,419.0 M564.0,18.1 L564.0,27.1  '/>	<g transform="translate(564.0,449.9)" stroke="none" fill="black" font-family="Arial" font-size="12.00"  text-anchor="middle">
		<text><tspan font-family="Arial" > 90</tspan></text>
	</g>
</g>
<g fill="none" color="black" stroke="currentColor" stroke-width="1.00" stroke-linecap="butt" stroke-linejoin="miter">
</g>
<g fill="none" color="black" stroke="currentColor" stroke-width="1.00" stroke-linecap="butt" stroke-linejoin="miter">
	<path stroke='black'  d='M53.9,18.1 L53.9,428.0 L615.0,428.0 L615.0,18.1 L53.9,18.1 Z  '/></g>
<g fill="none" color="black" stroke="currentColor" stroke-width="1.00" stroke-linecap="butt" stroke-linejoin="miter">
</g>
	<g id="gnuplot_plot_1" ><title>pages+cached+noexternal+nofonts+nosvg+noimg+nocss</title>
<g fill="none" color="black" stroke="currentColor" stroke-width="1.00" stroke-linecap="butt" stroke-linejoin="miter">
	<g transform="translate(529.1,467.9)" stroke="none" fill="black" font-family="Arial" font-size="12.00"  text-anchor="end">
		<text><tspan font-family="Arial" >pages+cached+noexternal+nofonts+nosvg+noimg+nocss</tspan></text>
	</g>
</g>
<g fill="none" color="black" stroke="currentColor" stroke-width="1.00" stroke-linecap="butt" stroke-linejoin="miter">
	<path stroke='rgb(148,   0, 211)'  d='M537.4,464.0 L579.6,464.0 M53.9,420.1 L59.6,418.4 L65.2,416.9 L70.9,416.2 L76.6,414.9 L82.2,413.0
		L87.9,412.8 L93.6,406.5 L99.2,402.6 L104.9,402.4 L110.6,400.0 L116.2,399.4 L121.9,399.2 L127.6,395.9
		L133.2,395.7 L138.9,394.9 L144.6,394.0 L150.3,393.4 L155.9,392.9 L161.6,392.9 L167.3,390.5 L172.9,388.8
		L178.6,388.2 L184.3,386.4 L189.9,383.6 L195.6,382.6 L201.3,382.1 L206.9,378.0 L212.6,376.7 L218.3,376.3
		L223.9,376.1 L229.6,375.2 L235.3,374.1 L240.9,372.8 L246.6,371.6 L252.3,370.7 L257.9,359.5 L263.6,358.0
		L269.3,357.1 L274.9,344.4 L280.6,338.5 L286.3,338.5 L291.9,335.3 L297.6,334.0 L303.3,334.0 L308.9,333.3
		L314.6,329.9 L320.3,328.6 L325.9,327.1 L331.6,326.9 L337.3,326.0 L343.0,324.5 L348.6,323.4 L354.3,323.2
		L360.0,322.6 L365.6,322.6 L371.3,321.5 L377.0,317.4 L382.6,316.5 L388.3,314.4 L394.0,313.7 L399.6,310.5
		L405.3,309.6 L411.0,308.3 L416.6,307.2 L422.3,307.2 L428.0,305.5 L433.6,304.4 L439.3,300.3 L445.0,297.3
		L450.6,297.1 L456.3,294.9 L462.0,288.9 L467.6,288.7 L473.3,286.1 L479.0,283.9 L484.6,282.8 L490.3,282.6
		L496.0,277.0 L501.6,275.7 L507.3,275.5 L513.0,274.4 L518.6,272.5 L524.3,269.7 L530.0,267.3 L535.7,265.1
		L541.3,262.3 L547.0,250.2 L552.7,244.4 L558.3,243.1 L564.0,242.3 L569.7,240.5 L575.3,234.1 L581.0,218.7
		L586.7,217.9 L592.3,216.8 L598.0,211.4 L603.7,209.7 L609.3,162.6 L615.0,140.4  '/></g>
	</g>
	<g id="gnuplot_plot_2" ><title>pages+cached+noexternal+nofonts+nosvg+noimg+nocss+nojs</title>
<g fill="none" color="black" stroke="currentColor" stroke-width="1.00" stroke-linecap="butt" stroke-linejoin="miter">
	<g transform="translate(529.1,485.9)" stroke="none" fill="black" font-family="Arial" font-size="12.00"  text-anchor="end">
		<text><tspan font-family="Arial" >pages+cached+noexternal+nofonts+nosvg+noimg+nocss+nojs</tspan></text>
	</g>
</g>
<g fill="none" color="black" stroke="currentColor" stroke-width="1.00" stroke-linecap="butt" stroke-linejoin="miter">
	<path stroke='rgb(  0, 158, 115)'  d='M537.4,482.0 L579.6,482.0 M53.9,418.8 L59.6,418.2 L65.2,416.7 L70.9,410.0 L76.6,409.5 L82.2,409.3
		L87.9,409.1 L93.6,409.1 L99.2,408.0 L104.9,407.4 L110.6,406.3 L116.2,403.7 L121.9,403.3 L127.6,401.3
		L133.2,401.3 L138.9,400.9 L144.6,400.9 L150.3,400.0 L155.9,399.2 L161.6,398.7 L167.3,398.3 L172.9,398.3
		L178.6,398.1 L184.3,397.7 L189.9,397.2 L195.6,396.6 L201.3,396.6 L206.9,395.7 L212.6,394.9 L218.3,394.0
		L223.9,392.9 L229.6,390.1 L235.3,389.9 L240.9,389.0 L246.6,388.6 L252.3,386.9 L257.9,383.4 L263.6,382.3
		L269.3,382.1 L274.9,380.0 L280.6,373.7 L286.3,373.1 L291.9,372.0 L297.6,371.8 L303.3,370.3 L308.9,364.6
		L314.6,363.6 L320.3,361.6 L325.9,357.5 L331.6,354.5 L337.3,352.6 L343.0,345.7 L348.6,344.8 L354.3,344.1
		L360.0,343.1 L365.6,341.8 L371.3,339.2 L377.0,338.7 L382.6,333.8 L388.3,332.7 L394.0,329.5 L399.6,328.4
		L405.3,326.9 L411.0,326.2 L416.6,325.4 L422.3,324.1 L428.0,316.5 L433.6,316.3 L439.3,314.6 L445.0,313.1
		L450.6,312.6 L456.3,310.9 L462.0,310.0 L467.6,309.6 L473.3,308.5 L479.0,305.9 L484.6,303.1 L490.3,302.3
		L496.0,301.0 L501.6,297.3 L507.3,296.2 L513.0,296.2 L518.6,295.6 L524.3,294.5 L530.0,293.4 L535.7,289.3
		L541.3,271.4 L547.0,269.0 L552.7,261.3 L558.3,249.8 L564.0,249.4 L569.7,235.4 L575.3,222.8 L581.0,218.5
		L586.7,213.1 L592.3,205.8 L598.0,196.5 L603.7,173.2 L609.3,154.6 L615.0,26.0  '/></g>
	</g>
<g fill="none" color="#FFFFFF" stroke="rgb(  0, 158, 115)" stroke-width="2.00" stroke-linecap="butt" stroke-linejoin="miter">
</g>
<g fill="none" color="black" stroke="currentColor" stroke-width="2.00" stroke-linecap="butt" stroke-linejoin="miter">
</g>
<g fill="none" color="black" stroke="black" stroke-width="1.00" stroke-linecap="butt" stroke-linejoin="miter">
</g>
<g fill="none" color="black" stroke="currentColor" stroke-width="1.00" stroke-linecap="butt" stroke-linejoin="miter">
	<path stroke='black'  d='M53.9,18.1 L53.9,428.0 L615.0,428.0 L615.0,18.1 L53.9,18.1 Z  '/></g>
<g fill="none" color="black" stroke="currentColor" stroke-width="1.00" stroke-linecap="butt" stroke-linejoin="miter">
</g>
</g>
</svg>
